icons/op-info2-24.svg

<svg width="24" height="24" viewBox="0 0 24 24" fill="none" xmlns="http://www.w3.org/2000/svg">
<path d="M17.6471 6.33284C14.5412 3.22239 9.45882 3.22239 6.35294 6.33284C3.21569 9.4433 3.21569 14.5331 6.35294 17.6436C9.45882 20.7855 14.5412 20.7855 17.6471 17.6436C20.7843 14.5331 20.7843 9.4433 17.6471 6.33284ZM12.0529 5.74939C12.9 5.74939 13.5902 6.4406 13.5902 7.28891C13.5902 8.13721 12.9 8.82842 12.0529 8.82842C11.2059 8.82842 10.5157 8.13721 10.5157 7.28891C10.5157 6.4406 11.1745 5.74939 12.0529 5.74939ZM14.5 17.0287C14.5 17.3429 14.3431 17.5 14.0294 17.5H10.0765C9.76274 17.5 9.60588 17.3429 9.60588 17.0287V16.0233C9.60588 15.7091 9.76274 15.552 10.0765 15.552H10.798V11.2791H10.0765C9.73137 11.2791 9.57451 11.122 9.57451 10.8078V9.80241C9.57451 9.48822 9.73137 9.33112 10.0765 9.33112H12.8373C13.151 9.33112 13.3078 9.48822 13.3078 9.80241V15.552H14.0294C14.3431 15.552 14.5 15.7091 14.5 16.0233V17.0287Z" fill="black"/>
</svg>

<svg xmlns="http://www.w3.org/2000/svg" width="24" height="24" viewBox="0 0 24 24"><path d="M17.647 6.333c-3.106-3.111-8.188-3.111-11.294 0-3.137 3.11-3.137 8.2 0 11.311 3.106 3.141 8.188 3.141 11.294 0 3.137-3.111 3.137-8.201 0-11.311Zm-5.594-.584a1.54 1.54 0 0 1 0 3.079 1.54 1.54 0 0 1-1.537-1.539c0-.848.659-1.54 1.537-1.54Zm2.447 11.28c0 .314-.157.471-.471.471h-3.953c-.313 0-.47-.157-.47-.471v-1.006c0-.314.157-.471.47-.471h.722v-4.273h-.722c-.345 0-.501-.157-.501-.471V9.802c0-.314.156-.471.501-.471h2.761c.314 0 .471.157.471.471v5.75h.721c.314 0 .471.157.471.471v1.006Z"/></svg>
